X:127
T:Polacco. CJF.127
R:misc
S:C.J.Fox MS, 1829/33, Beverley,E.Yorks.
N:There is a lead note of A in the MS – it has been omitted
N:to allow correct playing. The note asterisked is f2 in the
N:MS. The grace notes are between beamed notes in the MS. – PJH.
B:Kidson Coll.Mitchell Lib.M1805
O:England
A:East Yorkshire
Z:vmp.P J Headford 200
M:3/4
L:1/16
Q:1/8=140
K:D
d2d2 d2ed cdef|g2B2 B2A2B2c2|\
d2d2 d2ed cdBc|A2a2 abga fgef|!
d2d2 d2ed cdef|g2B2 B2A2B2c2|\
d2d{ed}c d2f2e2a2|d2d{ed}c d2f2d2z2:|!
|:f2f2 fgfe d2f2|e2e2 egfa g2z2|\
e2e2 efed c2e2|d2d2 dfeg “*” f2z2″ D.C.”||!
d4A2d2d2d2|e4a2a2a2a2|a4a2f2d2f2|d2f2A2d2 f2A2|!
d4A2d2d2d2|e4a2a2a2a2|a4a2f2d2f2|efed cdcB A4|!
g2gf e2ed c2cB|AcBd cedf egfa|g2gf e2ed c2cB|\
AcBd cedf egf” D.C.”a|]

